static/assets/images/tokens/oeth.svg

<svg width="256" height="256" viewBox="0 0 256 256" fill="none" xmlns="http://www.w3.org/2000/svg">
<path d="M128.428 255.999C199.117 255.764 256.235 198.26 255.999 127.572C255.764 56.8833 198.26 -0.234725 127.572 0.000725314C56.8833 0.236175 -0.234725 57.7395 0.000725314 128.428C0.236175 199.117 57.7395 256.235 128.428 255.999Z" fill="#0074F0"/>
<path opacity="0.2" d="M208.01 207.497C251.89 163.318 251.676 91.8802 207.497 47.9902C163.318 4.11086 91.8798 4.3249 47.9897 48.5039L208.01 207.497Z" fill="white"/>
<path d="M121.353 62.4212C137.336 60.7541 153.377 64.9825 166.461 74.3116C179.545 83.6407 188.771 97.4278 192.404 113.081C196.037 128.734 193.828 145.176 186.19 159.314C178.553 173.453 166.014 184.315 150.931 189.858L128.574 221.311C152.456 221.218 175.394 211.972 192.665 195.477C209.935 178.981 220.224 156.492 221.413 132.639C222.601 108.786 214.6 85.3853 199.055 67.2545C183.51 49.1236 161.605 37.6428 137.85 35.1758L121.353 62.4212Z" fill="white"/>
<path d="M126.019 34.7033C102.456 35.2054 79.9559 44.6048 63.0379 61.0135C46.1198 77.4221 36.0371 99.6246 34.8151 123.161C33.5931 146.698 41.3222 169.825 56.45 187.898C71.5779 205.97 92.9838 217.649 116.368 220.589L135.629 193.496C119.405 195.382 103.058 191.177 89.7575 181.697C76.457 172.216 67.1497 158.136 63.6394 142.184C60.1292 126.233 62.666 109.546 70.7583 95.3579C78.8506 81.1701 91.922 70.4918 107.439 65.3926L126.019 34.6895V34.7033Z" fill="white"/>
<path d="M150.933 189.857C163.582 185.19 174.497 176.757 182.206 165.696C189.916 154.634 194.049 141.476 194.05 127.993H221.448C221.449 152.665 211.678 176.334 194.274 193.822C176.869 211.309 153.247 221.193 128.575 221.31L150.933 189.857Z" fill="url(#paint0_linear_9890_1768)"/>
<path d="M126.02 34.7036C101.643 35.2551 78.4501 45.3259 61.4044 62.761C44.3586 80.196 34.814 103.61 34.813 127.993C34.813 127.993 62.2111 128.396 62.2111 127.993C62.2111 98.8317 81.1663 74.0859 107.426 65.4068L126.02 34.7036Z" fill="url(#paint1_linear_9890_1768)"/>
<path d="M127.965 204.286L174.818 138.297L127.965 165.959L81.1392 138.297L127.965 204.286Z" fill="white"/>
<path opacity="0.1" d="M127.964 204.286L174.817 138.297L127.964 165.959V204.286Z" fill="#0074F0"/>
<path d="M127.824 157.183L174.899 129.494L127.824 51.729L80.7344 129.494L127.81 157.197L127.824 157.183Z" fill="url(#paint2_linear_9890_1768)"/>
<path d="M127.824 157.183L174.899 129.494L127.824 51.729L80.7344 129.494L127.81 157.197L127.824 157.183Z" fill="white"/>
<path opacity="0.1" d="M127.824 157.183L80.7344 129.494L127.81 51.729L127.824 157.183Z" fill="#0074F0"/>
<path opacity="0.1" d="M127.824 157.183V107.414L80.7344 129.493L127.81 157.197L127.824 157.183ZM127.824 157.183V107.414L174.899 129.493L127.824 157.183Z" fill="#0074F0"/>
<defs>
<linearGradient id="paint0_linear_9890_1768" x1="66.6967" y1="244.917" x2="169.457" y2="177.595" gradientUnits="userSpaceOnUse">
<stop stop-color="#1A82FF" stop-opacity="0.5"/>
<stop offset="1" stop-color="white"/>
</linearGradient>
<linearGradient id="paint1_linear_9890_1768" x1="178.497" y1="-8.2475" x2="80.1665" y2="62.7961" gradientUnits="userSpaceOnUse">
<stop stop-color="#1A82FF" stop-opacity="0.5"/>
<stop offset="1" stop-color="white"/>
</linearGradient>
<linearGradient id="paint2_linear_9890_1768" x1="27.6461" y1="79.877" x2="110.132" y2="130.23" gradientUnits="userSpaceOnUse">
<stop stop-color="#1C313F"/>
<stop offset="1" stop-color="white"/>
</linearGradient>
</defs>
</svg>

<svg xmlns="http://www.w3.org/2000/svg" fill="none" viewBox="0 0 256 256"><path fill="#0074F0" d="M128.428 255.999c70.689-.235 127.807-57.739 127.571-128.427C255.764 56.883 198.26-.235 127.572.001 56.883.236-.235 57.74.001 128.428c.235 70.689 57.739 127.807 128.427 127.571"/><path fill="#fff" d="M208.01 207.497c43.88-44.179 43.666-115.617-.513-159.507C163.318 4.11 91.88 4.325 47.99 48.504z" opacity=".2"/><path fill="#fff" d="M121.353 62.421a65.918 65.918 0 0 1 29.578 127.437l-22.357 31.453a93.32 93.32 0 0 0 64.091-25.834A93.32 93.32 0 0 0 137.85 35.176z"/><path fill="#fff" d="M126.019 34.703a93.317 93.317 0 0 0-9.651 185.886l19.261-27.093a65.92 65.92 0 0 1-28.19-128.103l18.58-30.703z"/><path fill="url(#paint0_linear_9890_1768)" d="M150.933 189.857a65.94 65.94 0 0 0 43.117-61.864h27.398a93.317 93.317 0 0 1-92.873 93.317z"/><path fill="url(#paint1_linear_9890_1768)" d="M126.02 34.704a93.317 93.317 0 0 0-91.207 93.289s27.398.403 27.398 0c0-29.161 18.955-53.907 45.215-62.586z"/><path fill="#fff" d="m127.965 204.286 46.853-65.989-46.853 27.662-46.826-27.662z"/><path fill="#0074F0" d="m127.964 204.286 46.853-65.989-46.853 27.662z" opacity=".1"/><path fill="url(#paint2_linear_9890_1768)" d="m127.824 157.183 47.075-27.689-47.075-77.765-47.09 77.765 47.076 27.703z"/><path fill="#fff" d="m127.824 157.183 47.075-27.689-47.075-77.765-47.09 77.765 47.076 27.703z"/><path fill="#0074F0" d="m127.824 157.183-47.09-27.689 47.076-77.765z" opacity=".1"/><path fill="#0074F0" d="M127.824 157.183v-49.769l-47.09 22.079 47.076 27.704zm0 0v-49.769l47.075 22.079z" opacity=".1"/><defs><linearGradient id="paint0_linear_9890_1768" x1="66.697" x2="169.457" y1="244.917" y2="177.595" gradientUnits="userSpaceOnUse"><stop stop-color="#1A82FF" stop-opacity=".5"/><stop offset="1" stop-color="#fff"/></linearGradient><linearGradient id="paint1_linear_9890_1768" x1="178.497" x2="80.166" y1="-8.248" y2="62.796" gradientUnits="userSpaceOnUse"><stop stop-color="#1A82FF" stop-opacity=".5"/><stop offset="1" stop-color="#fff"/></linearGradient><linearGradient id="paint2_linear_9890_1768" x1="27.646" x2="110.132" y1="79.877" y2="130.23" gradientUnits="userSpaceOnUse"><stop stop-color="#1C313F"/><stop offset="1" stop-color="#fff"/></linearGradient></defs></svg>
